X:1
T:Lest We Forget, 88.88.88
T:Lest We Forget, 88.88.88
T:George Frederic Blanchard, 1898
T:Public Domain Courtesy of the Cyber Hymnal™
C:George Frederic Blanchard, 1898
Z:Public Domain
Z:Courtesy of the Cyber Hymnal™
%%score ( 1 2 ) ( 3 4 )
L:1/8
M:3/4
K:Ab
V:1 treble 
V:2 treble 
V:3 bass 
V:4 bass 
V:1
 A2 G2 E2 | F4 C2 | [CE]4 [B,D]2 | [A,C]6 | [Ec]2 [Ec]2 [=Ec]2 | [Fc]4 [Fc]2 | (c2 B2) F2 | %7
 [=EG]6 | [FA]2 [FA]2 [CA]2 | [DA]4 [=B,F]2 | [CE]4 [B,D]2 | [B,C]4 [B,C]2 | F4 [=EG]2 | %13
 [FA]4 [FA]2 | [FB]4 [F=B]2 | [=Ec]6 | [Ec]2 [Ec]2 [Ac]2 | [Ge]4 [Gc]2 | [FA]4 [FB]2 | [=Ec]6 | %20
 [Fc]2 [Fc]2 [Fc]2 | [=DA]4 [DA]2 | E4 [DE]2 | !fermata![CE]6 |] %24
V:2
 A2 G2 E2 | F4 C2 | x6 | x6 | x6 | x6 | F4 F2 | x6 | x6 | x6 | x6 | x6 | (A,2 C2) x2 | x6 | x6 | %15
 x6 | x6 | x6 | x6 | x6 | x6 | x6 | (E2 D2) x2 | x6 |] %24
V:3
 A,2 G,2 E,2 | F,4 [_F,A,]2 | (A,2 F,2) [E,G,]2 | [A,,A,]6 | A,2 A,2 [G,B,]2 | [F,A,]4 [E,A,]2 | %6
 (A,2 B,2) [D,=B,]2 | [C,C]6 | [F,C]2 [F,C]2 [F,A,]2 | [D,F,]4 [=D,A,]2 | (A,2 F,2) [E,G,]2 | %11
 [=E,G,]4 [E,G,]2 | (F,2 A,2) [F,D]2 | [F,C]4 [E,C]2 | [D,B,]4 [D,F,]2 | [C,G,]6 | %16
 A,2 [A,C]2 [A,E]2 | [E,D]4 [=E,C]2 | C4 [D,B,]2 | [C,G,]6 | [F,A,]2 [F,A,]2 [F,A,]2 | %21
 [_F,_C]4 [F,C]2 | (C2 F,2) [E,G,]2 | !fermata![A,,A,]6 |] %24
V:4
 A,2 G,2 E,2 | _F,4 x2 | E,4 x2 | x6 | A,2 A,2 x2 | x6 | D,4 x2 | x6 | x6 | x6 | E,4 x2 | x6 | %12
 F,4 x2 | x6 | x6 | x6 | A,2 x4 | x6 | (F,2 E,2) x2 | x6 | x6 | x6 | x2 E,4 | x6 |] %24

